source/img/icon-trust-lecture.svg

<svg width="61" height="61" viewBox="0 0 61 61" fill="none" xmlns="http://www.w3.org/2000/svg">
<path d="M60.0161 29.5161H59.0323V23.4437C59.0323 21.3854 58.2314 19.4511 56.7762 17.998C55.3211 16.5428 53.3868 15.7419 51.3295 15.7419H50.1774V14.6774C52.5259 13.3137 54.1129 10.7773 54.1129 7.87097C54.1129 3.53111 50.5818 0 46.2419 0C41.9021 0 38.371 3.53111 38.371 7.87097C38.371 10.7763 39.958 13.3137 42.3064 14.6774V15.7419H41.1543C39.0971 15.7419 37.1628 16.5428 35.7076 17.998C34.2525 19.4521 33.4516 21.3854 33.4516 23.4437V29.5161H31.4839V26.5645C31.4839 26.0204 31.0431 25.5806 30.5 25.5806H27.5484V25.2432C27.5484 22.3742 28.5165 19.6558 30.2904 17.4529C30.6564 17.6152 31.0588 17.7097 31.4839 17.7097C33.1112 17.7097 34.4355 16.3854 34.4355 14.7581C34.4355 13.1307 33.1112 11.8065 31.4839 11.8065C29.8565 11.8065 28.5323 13.1307 28.5323 14.7581C28.5323 15.2382 28.6582 15.6839 28.8619 16.0853C26.7377 18.6601 25.5806 21.8626 25.5806 25.2432V25.5806H22.629C22.0859 25.5806 21.6452 26.0204 21.6452 26.5645V29.5161H20.6613C20.1182 29.5161 19.6774 29.9559 19.6774 30.5V34.4355C19.6774 34.9796 20.1182 35.4194 20.6613 35.4194H21.6452V41.3226C18.9326 41.3226 16.7258 43.5294 16.7258 46.2419C16.7258 47.703 17.3791 49.0027 18.3935 49.9049C16.8527 50.6074 15.5747 51.788 14.7581 53.2628C13.9415 51.789 12.6634 50.6084 11.1227 49.9049C12.137 49.0027 12.7903 47.703 12.7903 46.2419C12.7903 43.5294 10.5835 41.3226 7.87097 41.3226C5.15844 41.3226 2.95161 43.5294 2.95161 46.2419C2.95161 47.703 3.6049 49.0027 4.61927 49.9049C1.89887 51.1455 0 53.8846 0 57.0645V60.0161C0 60.5602 0.440774 61 0.983871 61H42.3064C42.8495 61 43.2903 60.5602 43.2903 60.0161V59.0323H58.0484C58.5915 59.0323 59.0323 58.5925 59.0323 58.0484V35.4194H60.0161C60.5592 35.4194 61 34.9796 61 34.4355V30.5C61 29.9559 60.5592 29.5161 60.0161 29.5161ZM31.4839 13.7742C32.026 13.7742 32.4677 14.215 32.4677 14.7581C32.4677 15.3012 32.026 15.7419 31.4839 15.7419C30.9418 15.7419 30.5 15.3012 30.5 14.7581C30.5 14.215 30.9418 13.7742 31.4839 13.7742ZM57.0645 23.4437V29.5161H55.0968V25.5806H53.129V29.5161H47.2258V22.2532L49.7376 23.5086C49.8754 23.5785 50.0269 23.6129 50.1774 23.6129C50.3053 23.6129 50.4332 23.5883 50.5542 23.5381C50.8179 23.4289 51.0206 23.2105 51.1111 22.9409L52.7906 17.9035C53.7626 18.1583 54.656 18.6601 55.386 19.3901C56.4683 20.4724 57.0645 21.9118 57.0645 23.4437ZM42.7984 17.7097L44.7474 20.3081L42.881 21.2418L41.7043 17.7097H42.7984ZM49.6855 17.7097H50.7805L49.6038 21.2418L47.7374 20.3081L49.6855 17.7097ZM46.2419 1.96774C49.1345 1.96774 51.543 4.06044 52.0448 6.81035C50.1814 6.57423 48.4566 5.74187 47.1077 4.39298L46.9395 4.22376C46.5705 3.85284 45.9153 3.85284 45.5463 4.22376L45.3791 4.392C44.0292 5.74187 42.3045 6.57423 40.441 6.80937C40.9408 4.06044 43.3494 1.96774 46.2419 1.96774ZM40.4125 8.80269C42.575 8.58821 44.5979 7.71355 46.2419 6.2771C47.886 7.71256 49.9078 8.58821 52.0714 8.80269C51.6237 11.6166 49.1798 13.7742 46.2419 13.7742C43.3041 13.7742 40.8602 11.6166 40.4125 8.80269ZM46.2419 15.7419C46.9228 15.7419 47.579 15.6465 48.2097 15.4832V16.3982L46.2419 19.0212L44.2742 16.3982V15.4832C44.9049 15.6465 45.5611 15.7419 46.2419 15.7419ZM35.4194 23.4437C35.4194 21.9118 36.0156 20.4714 37.0988 19.3891C37.8289 18.6601 38.7222 18.1573 39.6943 17.9025L41.3737 22.9399C41.4643 23.2095 41.6669 23.4279 41.9306 23.5371C42.0506 23.5883 42.1785 23.6129 42.3064 23.6129C42.457 23.6129 42.6085 23.5785 42.7462 23.5096L45.2581 22.2532V29.5161H39.3548V25.5806H37.3871V29.5161H35.4194V23.4437ZM23.6129 27.5484H29.5161V29.5161H23.6129V27.5484ZM18.6935 46.2419C18.6935 44.6146 20.0178 43.2903 21.6452 43.2903C23.2725 43.2903 24.5968 44.6146 24.5968 46.2419C24.5968 47.8693 23.2725 49.1936 21.6452 49.1936C20.0178 49.1936 18.6935 47.8693 18.6935 46.2419ZM4.91935 46.2419C4.91935 44.6146 6.24365 43.2903 7.87097 43.2903C9.49829 43.2903 10.8226 44.6146 10.8226 46.2419C10.8226 47.8693 9.49829 49.1936 7.87097 49.1936C6.24365 49.1936 4.91935 47.8693 4.91935 46.2419ZM1.96774 57.0645C1.96774 53.8089 4.61534 51.1613 7.87097 51.1613C11.1266 51.1613 13.7742 53.8089 13.7742 57.0645V59.0323H1.96774V57.0645ZM15.7419 57.0645C15.7419 53.8089 18.3895 51.1613 21.6452 51.1613C24.9008 51.1613 27.5484 53.8089 27.5484 57.0645V59.0323H15.7419V57.0645ZM41.3226 59.0323H29.5161V57.0645C29.5161 53.8089 32.1637 51.1613 35.4194 51.1613C38.675 51.1613 41.3226 53.8089 41.3226 57.0645V59.0323ZM32.4677 46.2419C32.4677 44.6146 33.792 43.2903 35.4194 43.2903C37.0467 43.2903 38.371 44.6146 38.371 46.2419C38.371 47.8693 37.0467 49.1936 35.4194 49.1936C33.792 49.1936 32.4677 47.8693 32.4677 46.2419ZM57.0645 57.0645H43.2903C43.2903 53.8846 41.3914 51.1455 38.671 49.9049C39.6854 49.0027 40.3387 47.703 40.3387 46.2419C40.3387 43.5294 38.1319 41.3226 35.4194 41.3226C32.7068 41.3226 30.5 43.5294 30.5 46.2419C30.5 47.703 31.1533 49.0027 32.1677 49.9049C30.6269 50.6074 29.3489 51.788 28.5323 53.2628C27.7156 51.789 26.4376 50.6084 24.8969 49.9049C25.9112 49.0027 26.5645 47.703 26.5645 46.2419C26.5645 44.2299 25.3475 42.5013 23.6129 41.7397V35.4194H57.0645V57.0645ZM59.0323 33.4516H21.6452V31.4839H59.0323V33.4516Z" fill="#868686"/>
<path d="M2.95161 19.6775H18.6935C20.3209 19.6775 21.6452 18.3532 21.6452 16.7258V15.1654L25.2924 11.5182C25.6771 11.1335 25.6771 10.5117 25.2924 10.127L21.6452 6.47981V4.91939C21.6452 3.29206 20.3209 1.96777 18.6935 1.96777H2.95161C1.32429 1.96777 0 3.29206 0 4.91939V16.7258C0 18.3532 1.32429 19.6775 2.95161 19.6775ZM1.96774 4.91939C1.96774 4.37629 2.4095 3.93552 2.95161 3.93552H18.6935C19.2357 3.93552 19.6774 4.37629 19.6774 4.91939V6.88713C19.6774 7.14884 19.7807 7.39874 19.9657 7.58273L23.2056 10.8226L19.9657 14.0625C19.7807 14.2465 19.6774 14.4964 19.6774 14.7581V16.7258C19.6774 17.2689 19.2357 17.7097 18.6935 17.7097H2.95161C2.4095 17.7097 1.96774 17.2689 1.96774 16.7258V4.91939Z" fill="#868686"/>
<path d="M3.93555 5.90332H17.7097V7.87106H3.93555V5.90332Z" fill="#868686"/>
<path d="M3.93555 13.7744H17.7097V15.7422H3.93555V13.7744Z" fill="#868686"/>
<path d="M5.90332 9.83887H15.742V11.8066H5.90332V9.83887Z" fill="#868686"/>
</svg>

<svg viewBox="0 0 61 61" fill="none" xmlns="http://www.w3.org/2000/svg"><path d="M60.016 29.516h-.984v-6.072c0-2.059-.8-3.993-2.256-5.446a7.652 7.652 0 0 0-5.447-2.256h-1.152v-1.065c2.349-1.363 3.936-3.9 3.936-6.806 0-4.34-3.531-7.871-7.871-7.871S38.37 3.531 38.37 7.871c0 2.905 1.587 5.443 3.935 6.806v1.065h-1.152c-2.057 0-3.991.8-5.446 2.256a7.646 7.646 0 0 0-2.256 5.446v6.072h-1.968v-2.951a.984.984 0 0 0-.984-.984h-2.952v-.338c0-2.869.969-5.587 2.742-7.79.366.162.769.257 1.194.257a2.955 2.955 0 0 0 2.951-2.952 2.955 2.955 0 0 0-2.951-2.951 2.955 2.955 0 0 0-2.952 2.951c0 .48.126.926.33 1.327a14.313 14.313 0 0 0-3.281 9.158v.338h-2.952a.984.984 0 0 0-.984.983v2.952h-.984a.984.984 0 0 0-.984.984v3.935c0 .545.441.984.984.984h.984v5.904a4.925 4.925 0 0 0-4.92 4.919c0 1.461.654 2.76 1.668 3.663a7.91 7.91 0 0 0-3.635 3.358 7.92 7.92 0 0 0-3.635-3.358c1.014-.902 1.667-2.202 1.667-3.663a4.925 4.925 0 0 0-4.919-4.92 4.925 4.925 0 0 0-4.92 4.92c0 1.461.654 2.76 1.668 3.663C1.9 51.145 0 53.885 0 57.065v2.951c0 .544.44.984.984.984h41.322c.544 0 .984-.44.984-.984v-.984h14.758c.544 0 .984-.44.984-.984V35.42h.984c.543 0 .984-.44.984-.983V30.5a.984.984 0 0 0-.984-.984ZM31.484 13.774a.985.985 0 0 1 0 1.968.985.985 0 0 1 0-1.968Zm25.58 9.67v6.072h-1.967v-3.935h-1.968v3.935h-5.903v-7.263l2.512 1.256a.973.973 0 0 0 .816.03.986.986 0 0 0 .557-.598l1.68-5.037a5.698 5.698 0 0 1 2.595 1.486 5.695 5.695 0 0 1 1.678 4.054ZM42.799 17.71l1.95 2.598-1.867.934-1.177-3.532h1.094Zm6.887 0h1.096l-1.177 3.532-1.867-.934 1.948-2.598ZM46.242 1.968c2.893 0 5.301 2.092 5.803 4.842a8.448 8.448 0 0 1-4.937-2.417l-.168-.17a1.011 1.011 0 0 0-1.394 0l-.167.169a8.442 8.442 0 0 1-4.938 2.417c.5-2.749 2.908-4.841 5.8-4.841Zm-5.83 6.835a10.384 10.384 0 0 0 5.83-2.526 10.388 10.388 0 0 0 5.83 2.526 5.912 5.912 0 0 1-5.83 4.971 5.912 5.912 0 0 1-5.83-4.971Zm5.83 6.939c.68 0 1.337-.096 1.968-.259v.915l-1.968 2.623-1.968-2.623v-.915c.63.163 1.287.259 1.968.259Zm-10.823 7.702c0-1.532.597-2.973 1.68-4.055a5.708 5.708 0 0 1 2.595-1.486l1.68 5.037a.986.986 0 0 0 1.372.57l2.512-1.257v7.263h-5.903v-3.935h-1.968v3.935H35.42v-6.072Zm-11.806 4.104h5.903v1.968h-5.903v-1.968Zm-4.92 18.694a2.955 2.955 0 0 1 2.952-2.952 2.955 2.955 0 0 1 2.952 2.952 2.955 2.955 0 0 1-2.952 2.952 2.955 2.955 0 0 1-2.951-2.952Zm-13.774 0a2.955 2.955 0 0 1 2.952-2.952 2.955 2.955 0 0 1 2.952 2.952 2.955 2.955 0 0 1-2.952 2.952 2.955 2.955 0 0 1-2.952-2.952ZM1.968 57.065A5.91 5.91 0 0 1 7.87 51.16a5.91 5.91 0 0 1 5.903 5.904v1.967H1.968v-1.967Zm13.774 0a5.91 5.91 0 0 1 5.903-5.904 5.91 5.91 0 0 1 5.903 5.904v1.967H15.742v-1.967Zm25.58 1.967H29.517v-1.967a5.91 5.91 0 0 1 5.903-5.904 5.91 5.91 0 0 1 5.904 5.904v1.967Zm-8.854-12.79a2.955 2.955 0 0 1 2.951-2.952 2.955 2.955 0 0 1 2.952 2.952 2.955 2.955 0 0 1-2.952 2.952 2.955 2.955 0 0 1-2.951-2.952Zm24.596 10.823H43.29c0-3.18-1.899-5.92-4.619-7.16 1.014-.902 1.668-2.202 1.668-3.663a4.925 4.925 0 0 0-4.92-4.92 4.925 4.925 0 0 0-4.919 4.92c0 1.461.653 2.76 1.668 3.663a7.91 7.91 0 0 0-3.636 3.358 7.921 7.921 0 0 0-3.635-3.358c1.014-.902 1.668-2.202 1.668-3.663a4.922 4.922 0 0 0-2.952-4.502v-6.32h33.451v21.645Zm1.968-23.613H21.645v-1.968h37.387v1.968ZM2.952 19.677h15.742a2.955 2.955 0 0 0 2.951-2.951v-1.56l3.647-3.648a.983.983 0 0 0 0-1.391L21.645 6.48V4.92a2.955 2.955 0 0 0-2.951-2.952H2.951A2.955 2.955 0 0 0 0 4.919v11.807a2.955 2.955 0 0 0 2.952 2.951ZM1.968 4.92c0-.543.442-.983.984-.983h15.742c.542 0 .983.44.983.983v1.968a.98.98 0 0 0 .289.696l3.24 3.24-3.24 3.24a.98.98 0 0 0-.289.695v1.968a.985.985 0 0 1-.983.984H2.951a.985.985 0 0 1-.984-.984V4.919Z" fill="#868686"/><path d="M3.936 5.903H17.71v1.968H3.936V5.903ZM3.936 13.774H17.71v1.968H3.936v-1.968ZM5.903 9.839h9.839v1.968H5.903V9.839Z" fill="#868686"/></svg>
